picto/tram-left.svg

<svg class="color-immutable" width="24" height="24" viewBox="0 0 24 24" fill="none" xmlns="http://www.w3.org/2000/svg"><path d="M0 22.5V1.5C0 0.675 0.675 0 1.5 0H22.5C23.325 0 24 0.675 24 1.5V22.5C24 23.325 23.325 24 22.5 24H1.5C0.675 24 0 23.325 0 22.5Z" fill="#2D327D"/><path d="M13.582 4.186C13.647 4.121 13.684 4.033 13.684 3.941C13.684 3.749 13.529 3.594 13.337 3.594C13.245 3.594 13.157 3.63 13.092 3.696L9.21001 7.576H6.12401C5.57101 7.576 5.08401 7.937 4.92201 8.466L3.02801 14.669C3.01101 14.726 3.00201 14.785 3.00201 14.844V17.55C3.00201 17.757 3.17001 17.925 3.37701 17.925H21.001V13.5H17.364C17.157 13.5 16.989 13.332 16.989 13.125V8.625C16.989 8.418 17.157 8.25 17.364 8.25H21.001V7.576H10.191L13.582 4.186ZM6.75201 14.626C6.75201 14.833 6.58401 15.001 6.37701 15.001H4.15901C3.95201 15.001 3.78401 14.833 3.78401 14.626C3.78401 14.589 3.79001 14.552 3.80001 14.517L5.61401 8.575C5.68601 8.338 5.90501 8.177 6.15201 8.177H6.19001C6.50101 8.177 6.75201 8.429 6.75201 8.739V14.626ZM8.57101 14.513C8.57101 14.823 8.31901 15.075 8.00901 15.075C7.69801 15.075 7.44701 14.823 7.44701 14.513V8.739C7.44701 8.428 7.69901 8.177 8.00901 8.177C8.31901 8.177 8.57101 8.429 8.57101 8.739V14.513ZM11.064 8.626C11.064 8.419 11.232 8.251 11.439 8.251H15.939C16.146 8.251 16.314 8.419 16.314 8.626V13.126C16.314 13.333 16.146 13.501 15.939 13.501H11.439C11.232 13.501 11.064 13.333 11.064 13.126V8.626ZM10.389 8.739V14.513C10.389 14.823 10.137 15.075 9.82701 15.075C9.51601 15.075 9.26501 14.823 9.26501 14.513V8.739C9.26501 8.428 9.51701 8.177 9.82701 8.177C10.137 8.176 10.389 8.428 10.389 8.739Z" fill="white"/><path d="M11.653 18.675H7.87399C8.18499 19.445 8.93299 19.95 9.76399 19.95C10.595 19.95 11.342 19.446 11.653 18.675Z" fill="white"/><path d="M16.153 18.675H12.373C12.684 19.445 13.432 19.95 14.263 19.95C15.094 19.95 15.842 19.446 16.153 18.675Z" fill="white"/><path d="M3 20.325H21V21H3V20.325Z" fill="white"/><path d="M3 3H21V3.338H3V3Z" fill="white"/></svg>

<svg class="color-immutable" width="24" height="24" viewBox="0 0 24 24" fill="none" xmlns="http://www.w3.org/2000/svg"><g clip-path="url(#a)"><path d="M0 22.5v-21C0 .675.675 0 1.5 0h21c.825 0 1.5.675 1.5 1.5v21c0 .825-.675 1.5-1.5 1.5h-21C.675 24 0 23.325 0 22.5Z" fill="#2D327D"/><path d="M13.582 4.186a.347.347 0 1 0-.49-.49L9.21 7.576H6.124c-.553 0-1.04.361-1.202.89l-1.894 6.203a.613.613 0 0 0-.026.175v2.706c0 .207.168.375.375.375h17.624V13.5h-3.637a.375.375 0 0 1-.375-.375v-4.5c0-.207.168-.375.375-.375h3.637v-.674h-10.81l3.391-3.39Zm-6.83 10.44a.375.375 0 0 1-.375.375H4.159a.375.375 0 0 1-.359-.484l1.814-5.942a.562.562 0 0 1 .538-.398h.038c.311 0 .562.252.562.562v5.887Zm1.819-.113a.562.562 0 0 1-1.124 0V8.739a.562.562 0 1 1 1.124 0v5.774Zm2.493-5.887c0-.207.168-.375.375-.375h4.5c.207 0 .375.168.375.375v4.5a.375.375 0 0 1-.375.375h-4.5a.375.375 0 0 1-.375-.375v-4.5Zm-.675.113v5.774a.562.562 0 0 1-1.124 0V8.739a.562.562 0 1 1 1.124 0ZM11.653 18.675H7.874a2.039 2.039 0 0 0 3.779 0ZM16.153 18.675h-3.78a2.039 2.039 0 0 0 3.78 0ZM3 20.325h18V21H3v-.675ZM3 3h18v.338H3V3Z" fill="#fff"/></g><defs><clipPath id="a"><path fill="#fff" d="M0 0h24v24H0z"/></clipPath></defs></svg>
